X: 232
T: Miss Lamont of Lamont's Reel
C: William Shepherd (17??-1812)
R: strathspey
B: William Shepherd "2nd Collection" 1800 p.23 #2
F: http://imslp.org/wiki/File:PMLP73094-Shepherd_Collections_HMT.pdf
Z: 2012 John Chambers <jc:trillian.mit.edu>
M: C
L: 1/8
K: D
g |\
Tf>dTe>c d>BAF | D>TFdF E/E/E E<Tg |\
f>Tde>Tc d>BAF | D>dA>F D/D/D D ||
g |\
f>Tde>Tc d>BAF | D>Fd>F E/E/E Tg2 |\
f>de>c d>BAF | GBAF D/D/D D |]
B |\
D>FA>F d>FA>F | D>FA>F E/E/E TB2 |\
D>FA>F d>FA>F | G>BA>F D/D/D/ TB2 ||
D>FA>F d>FA>F | D>FA>F E/E/E TB2 |\
D<af>d E<ge>c | G>BAF D/D/D D |]
